X: 39442
T: Tarantella
R: jig
M: 6/8
K: Eminor
|e2e B2B|e2e B2B|BAB c2c|cdc B3|
BcB A2A|ABA G2G|GAG F2A|G2F E3|
e2e B2B|e2eB2B|BABc2c|cdcB3|
BcB A3|ABA G3|GAGF2A|G2F E2F|
GFG AGF|G2E EFG|F2F AGF|G2E E2F|
GFG AGF|G2E E2G|F2AG2F|E3 E2F|
GFG AGF|G2E EFG|F2F AGF|G2E E2F|
GFG AGF|G2E E2G|F2A G2F|E3 E3|
|:GDG BGB|d2d ded|c2c cdc|
B3B3|GDG BGB|d2d d2e|fed cBA|G3G3:|

